X: 30570
T: One After It, The
R: jig
M: 6/8
K: Dmixolydian
|:F2D DCA,|CDE DFA|d^cd fde|dcA ~G3|
AdB c2A|BGA FDE|F2G EAG|ED^CD3:|
K:D
|:dfa~g3|ece gec|dfa ged|cde d2g|
fga efg|cde A2G|Ace dcA|1 GEA D2 c:|2 GEA DEG||

